images/zhuyin/28.svg

<svg width="50" height="50" viewBox="0 0 50 50" fill="none" xmlns="http://www.w3.org/2000/svg">
<path d="M15.4375 23.8438H18.4375L20.5234 23.5156V21.7812C20.5234 19.7812 20.2969 18.4062 19.8438 17.6562C19.6562 17.5469 19.5625 17.4297 19.5625 17.3047C19.5625 17.0391 19.7812 16.9062 20.2188 16.9062C20.625 16.9062 21.125 17.0781 21.7188 17.4219C22.1562 17.6719 22.375 17.9375 22.375 18.2188L22.3047 18.9219C22.1328 19.9062 22.0625 21.3438 22.0938 23.2344L28.0469 22.25C28.0156 21.5625 27.9688 20.8438 27.9062 20.0938C27.8438 18.1562 27.6797 16.9609 27.4141 16.5078C27.2422 16.2734 27.1562 16.0938 27.1562 15.9688C27.1562 15.8438 27.375 15.7812 27.8125 15.7812C28.125 15.7812 28.5391 15.9688 29.0547 16.3438C29.7266 16.8438 30.0625 17.2266 30.0625 17.4922C30.0625 17.6016 30 17.7812 29.875 18.0312C29.75 18.4688 29.6328 19.6562 29.5234 21.5938V21.9922L29.6875 21.9688C30.5625 21.8438 31.2812 21.6953 31.8438 21.5234C32.2188 21.3984 32.5 21.3359 32.6875 21.3359C32.9375 21.3359 33.2422 21.4922 33.6016 21.8047C33.9922 22.2266 34.1875 22.5312 34.1875 22.7188C34.1875 22.9688 34.0312 23.0938 33.7188 23.0938L33.3906 23.0703C33.2812 23.0234 33.1406 23 32.9688 23C32 23 30.8281 23.0781 29.4531 23.2344C29.4062 24.4062 29.2969 25.4922 29.125 26.4922C28.9062 27.8047 28.625 28.7422 28.2812 29.3047C28.0625 29.6641 27.9062 29.8438 27.8125 29.8438C27.625 29.8438 27.5312 29.6953 27.5312 29.3984C27.5312 29.1016 27.5938 28.7031 27.7188 28.2031C27.9844 26.9375 28.1016 25.3516 28.0703 23.4453C27.0703 23.5859 25.9688 23.7578 24.7656 23.9609C23.7812 24.1172 22.8984 24.2656 22.1172 24.4062L22.1406 25.2031C22.2188 28.9844 22.5391 31.0625 23.1016 31.4375C23.6953 31.9375 24.7656 32.1875 26.3125 32.1875C27.1719 32.1875 28.2969 32.0078 29.6875 31.6484C30.3438 31.4609 30.875 31.3672 31.2812 31.3672C31.5156 31.3672 31.7109 31.4297 31.8672 31.5547C32.0391 31.6953 32.125 31.875 32.125 32.0938C32.125 32.5938 31.8125 32.9688 31.1875 33.2188C30.1875 33.5938 28.6328 33.7812 26.5234 33.7812C24.6328 33.7812 23.25 33.4062 22.375 32.6562C21.625 32.0312 21.125 30.75 20.875 28.8125C20.7344 27.5469 20.6328 26.1797 20.5703 24.7109C19.3984 24.9453 18.5469 25.1719 18.0156 25.3906C17.7812 25.4844 17.5781 25.5312 17.4062 25.5312C17.0469 25.5312 16.5781 25.3359 16 24.9453C15.5 24.5859 15.25 24.3125 15.25 24.125C15.25 23.9375 15.3125 23.8438 15.4375 23.8438Z" fill="#333333"/>
<path d="M18.4375 23.8438V24.3438H18.4766L18.5152 24.3377L18.4375 23.8438ZM20.5234 23.5156L20.6011 24.0096L21.0234 23.9431V23.5156H20.5234ZM19.8438 17.6562L20.2717 17.3977L20.2058 17.2886L20.0957 17.2244L19.8438 17.6562ZM21.7188 17.4219L21.4682 17.8546L21.4707 17.856L21.7188 17.4219ZM22.375 18.2188L22.8725 18.2685L22.875 18.2437V18.2188H22.375ZM22.3047 18.9219L22.7972 19.0079L22.8004 18.9898L22.8022 18.9716L22.3047 18.9219ZM22.0938 23.2344L21.5938 23.2426L21.6034 23.8222L22.1753 23.7277L22.0938 23.2344ZM28.0469 22.25L28.1284 22.7433L28.5665 22.6709L28.5464 22.2273L28.0469 22.25ZM27.9062 20.0938L27.4065 20.1099L27.4069 20.1226L27.408 20.1353L27.9062 20.0938ZM27.4141 16.5078L27.8454 16.255L27.8324 16.2328L27.8173 16.2121L27.4141 16.5078ZM29.0547 16.3438L29.3532 15.9426L29.3488 15.9394L29.0547 16.3438ZM29.875 18.0312L29.4278 17.8076L29.407 17.8492L29.3942 17.8939L29.875 18.0312ZM29.5234 21.5938L29.0242 21.5656L29.0234 21.5796V21.5938H29.5234ZM29.5234 21.9922H29.0234V22.5687L29.5941 22.4872L29.5234 21.9922ZM31.8438 21.5234L31.9899 22.0018L32.0019 21.9978L31.8438 21.5234ZM33.6016 21.8047L33.9684 21.465L33.9501 21.4451L33.9297 21.4274L33.6016 21.8047ZM33.7188 23.0938L33.6831 23.5925L33.7009 23.5938H33.7188V23.0938ZM33.3906 23.0703L33.1937 23.5299L33.271 23.563L33.355 23.569L33.3906 23.0703ZM29.4531 23.2344L29.3967 22.7376L28.9707 22.786L28.9535 23.2144L29.4531 23.2344ZM29.125 26.4922L28.6322 26.4075L28.6318 26.41L29.125 26.4922ZM28.2812 29.3047L27.8546 29.044L27.8542 29.0447L28.2812 29.3047ZM27.7188 28.2031L28.2038 28.3244L28.2061 28.3151L28.2081 28.3058L27.7188 28.2031ZM28.0703 23.4453L28.5702 23.4371L28.561 22.8714L28.0007 22.9502L28.0703 23.4453ZM24.7656 23.9609L24.844 24.4548L24.8489 24.454L24.7656 23.9609ZM22.1172 24.4062L22.0286 23.9142L21.6047 23.9905L21.6174 24.4209L22.1172 24.4062ZM22.1406 25.2031L22.6405 25.1928L22.6404 25.1884L22.1406 25.2031ZM23.1016 31.4375L23.4236 31.055L23.4022 31.037L23.3789 31.0215L23.1016 31.4375ZM29.6875 31.6484L29.8126 32.1327L29.8249 32.1292L29.6875 31.6484ZM31.8672 31.5547L32.1838 31.1677L32.1795 31.1643L31.8672 31.5547ZM31.1875 33.2188L31.3631 33.687L31.3732 33.683L31.1875 33.2188ZM22.375 32.6562L22.7004 32.2766L22.6951 32.2721L22.375 32.6562ZM20.875 28.8125L20.378 28.8677L20.3791 28.8765L20.875 28.8125ZM20.5703 24.7109L21.0699 24.6897L21.045 24.1061L20.4723 24.2206L20.5703 24.7109ZM18.0156 25.3906L18.2013 25.8549L18.206 25.853L18.0156 25.3906ZM16 24.9453L15.7082 25.3513L15.7141 25.3555L15.7201 25.3596L16 24.9453ZM15.4375 24.3438H18.4375V23.3438H15.4375V24.3438ZM18.5152 24.3377L20.6011 24.0096L20.4457 23.0217L18.3598 23.3498L18.5152 24.3377ZM21.0234 23.5156V21.7812H20.0234V23.5156H21.0234ZM21.0234 21.7812C21.0234 20.7647 20.966 19.8919 20.8469 19.1687C20.7286 18.4512 20.5448 17.8496 20.2717 17.3977L19.4158 17.9148C19.5959 18.2129 19.7518 18.6738 19.8602 19.3313C19.9676 19.9831 20.0234 20.7978 20.0234 21.7812H21.0234ZM20.0957 17.2244C20.0663 17.2072 20.0466 17.1932 20.0344 17.1834C20.022 17.1734 20.0199 17.1698 20.0232 17.174C20.0268 17.1784 20.0371 17.1924 20.0464 17.2165C20.056 17.2415 20.0625 17.2718 20.0625 17.3047H19.0625C19.0625 17.7093 19.3657 17.9563 19.5918 18.0881L20.0957 17.2244ZM20.0625 17.3047C20.0625 17.3081 20.0613 17.3355 20.0418 17.371C20.0218 17.4074 19.9967 17.4268 19.9861 17.4333C19.9787 17.4377 19.9889 17.4297 20.0308 17.4212C20.072 17.4129 20.1332 17.4062 20.2188 17.4062V16.4062C19.9657 16.4062 19.6923 16.4417 19.4671 16.5785C19.2016 16.7397 19.0625 17.0053 19.0625 17.3047H20.0625ZM20.2188 17.4062C20.4957 17.4062 20.9044 17.5281 21.4682 17.8546L21.9693 16.9892C21.3456 16.6281 20.7543 16.4062 20.2188 16.4062V17.4062ZM21.4707 17.856C21.659 17.9636 21.7676 18.0568 21.825 18.1264C21.8777 18.1904 21.875 18.2183 21.875 18.2188H22.875C22.875 17.6505 22.4361 17.2559 21.9668 16.9878L21.4707 17.856ZM21.8775 18.169L21.8072 18.8721L22.8022 18.9716L22.8725 18.2685L21.8775 18.169ZM21.8121 18.8359C21.632 19.8677 21.5624 21.3431 21.5938 23.2426L22.5937 23.2261C22.5626 21.3444 22.6336 19.9448 22.7972 19.0079L21.8121 18.8359ZM22.1753 23.7277L28.1284 22.7433L27.9653 21.7567L22.0122 22.7411L22.1753 23.7277ZM28.5464 22.2273C28.5148 21.533 28.4675 20.8079 28.4045 20.0522L27.408 20.1353C27.47 20.8796 27.5165 21.592 27.5474 22.2727L28.5464 22.2273ZM28.406 20.0776C28.3745 19.1006 28.317 18.2981 28.2317 17.6762C28.1494 17.0763 28.0331 16.5752 27.8454 16.255L26.9827 16.7607C27.0606 16.8936 27.1592 17.2167 27.241 17.8121C27.3197 18.3855 27.3755 19.1494 27.4065 20.1099L28.406 20.0776ZM27.8173 16.2121C27.7422 16.1097 27.6967 16.0337 27.6718 15.9815C27.644 15.9234 27.6562 15.9252 27.6562 15.9688H26.6562C26.6562 16.1373 26.7115 16.2914 26.7696 16.413C26.8306 16.5405 26.9141 16.6715 27.0109 16.8035L27.8173 16.2121ZM27.6562 15.9688C27.6562 16.029 27.6424 16.0911 27.6137 16.1484C27.5859 16.204 27.5507 16.2423 27.5227 16.2663C27.4728 16.3091 27.4364 16.315 27.4577 16.3089C27.4731 16.3045 27.5089 16.2968 27.5728 16.2907C27.6349 16.2848 27.7142 16.2812 27.8125 16.2812V15.2812C27.5817 15.2812 27.3611 15.2965 27.183 15.3474C27.0948 15.3725 26.9764 15.4175 26.8719 15.5071C26.7525 15.6094 26.6562 15.7685 26.6562 15.9688H27.6562ZM27.8125 16.2812C27.955 16.2812 28.2571 16.3819 28.7606 16.7481L29.3488 15.9394C28.8211 15.5556 28.295 15.2812 27.8125 15.2812V16.2812ZM28.7562 16.7449C29.0795 16.9854 29.3 17.1821 29.4347 17.3357C29.5866 17.5087 29.5625 17.5514 29.5625 17.4922H30.5625C30.5625 17.1674 30.3705 16.8859 30.1864 16.6761C29.9852 16.4468 29.7018 16.2021 29.3532 15.9426L28.7562 16.7449ZM29.5625 17.4922C29.5625 17.4643 29.5677 17.4747 29.5434 17.5447C29.5216 17.6073 29.4847 17.6938 29.4278 17.8076L30.3222 18.2549C30.3903 18.1187 30.4471 17.9904 30.4879 17.8732C30.526 17.7636 30.5625 17.6294 30.5625 17.4922H29.5625ZM29.3942 17.8939C29.3177 18.1617 29.2541 18.6102 29.1958 19.2009C29.1362 19.8045 29.0791 20.5936 29.0242 21.5656L30.0226 21.6219C30.0771 20.6564 30.1333 19.883 30.1909 19.2991C30.2498 18.7023 30.3073 18.3383 30.3558 18.1686L29.3942 17.8939ZM29.0234 21.5938V21.9922H30.0234V21.5938H29.0234ZM29.5941 22.4872L29.7582 22.4637L29.6168 21.4738L29.4527 21.4972L29.5941 22.4872ZM29.7582 22.4637C30.6474 22.3367 31.3937 22.1838 31.9899 22.0016L31.6976 21.0453C31.1688 21.2069 30.4776 21.3508 29.6168 21.4738L29.7582 22.4637ZM32.0019 21.9978C32.3695 21.8752 32.5858 21.8359 32.6875 21.8359V20.8359C32.4142 20.8359 32.068 20.9216 31.6856 21.0491L32.0019 21.9978ZM32.6875 21.8359C32.7473 21.8359 32.9333 21.8862 33.2735 22.182L33.9297 21.4274C33.5511 21.0982 33.1277 20.8359 32.6875 20.8359V21.8359ZM33.2347 22.1444C33.4202 22.3447 33.5448 22.502 33.6201 22.6194C33.7063 22.754 33.6875 22.7748 33.6875 22.7188H34.6875C34.6875 22.4752 34.571 22.2499 34.462 22.0798C34.3419 21.8925 34.1736 21.6865 33.9684 21.465L33.2347 22.1444ZM33.6875 22.7188C33.6875 22.73 33.6857 22.7169 33.6967 22.6905C33.7089 22.6611 33.7304 22.6316 33.758 22.6096C33.7832 22.5894 33.8006 22.5857 33.795 22.5872C33.7885 22.5889 33.7652 22.5938 33.7188 22.5938V23.5938C33.9284 23.5938 34.1782 23.554 34.3827 23.3904C34.6084 23.2098 34.6875 22.9541 34.6875 22.7188H33.6875ZM33.7544 22.595L33.4262 22.5716L33.355 23.569L33.6831 23.5925L33.7544 22.595ZM33.5876 22.6107C33.3948 22.5281 33.1807 22.5 32.9688 22.5V23.5C33.1006 23.5 33.1677 23.5188 33.1937 23.5299L33.5876 22.6107ZM32.9688 22.5C31.9751 22.5 30.7832 22.58 29.3967 22.7376L29.5096 23.7312C30.8731 23.5762 32.0249 23.5 32.9688 23.5V22.5ZM28.9535 23.2144C28.9074 24.3678 28.7999 25.4319 28.6322 26.4075L29.6178 26.5769C29.7938 25.5525 29.9051 24.4447 29.9527 23.2544L28.9535 23.2144ZM28.6318 26.41C28.4151 27.7104 28.1457 28.5676 27.8546 29.044L28.7079 29.5654C29.1043 28.9167 29.3974 27.899 29.6182 26.5744L28.6318 26.41ZM27.8542 29.0447C27.7501 29.2156 27.6735 29.3225 27.6227 29.3809C27.5968 29.4106 27.5904 29.4129 27.6027 29.4041C27.6098 29.399 27.6293 29.3857 27.6606 29.3728C27.6921 29.3599 27.7445 29.3438 27.8125 29.3438V30.3438C27.9887 30.3438 28.1198 30.2639 28.1863 30.2161C28.2612 30.1623 28.325 30.0972 28.3773 30.0371C28.4828 29.9158 28.5936 29.7531 28.7083 29.5647L27.8542 29.0447ZM27.8125 29.3438C27.8324 29.3438 27.8742 29.3481 27.9228 29.3737C27.9729 29.4002 28.006 29.4365 28.0243 29.4654C28.0405 29.491 28.041 29.5041 28.0381 29.4903C28.0353 29.4769 28.0312 29.4479 28.0312 29.3984H27.0312C27.0312 29.5834 27.0575 29.8074 27.1788 29.9994C27.3245 30.2302 27.5612 30.3438 27.8125 30.3438V29.3438ZM28.0312 29.3984C28.0312 29.1617 28.0826 28.8092 28.2038 28.3244L27.2337 28.0819C27.1049 28.597 27.0312 29.0414 27.0312 29.3984H28.0312ZM28.2081 28.3058C28.484 26.991 28.6018 25.3648 28.5702 23.4371L27.5704 23.4535C27.6013 25.3383 27.4847 26.884 27.2294 28.1004L28.2081 28.3058ZM28.0007 22.9502C26.9953 23.0916 25.8891 23.2642 24.6824 23.4679L24.8489 24.454C26.0484 24.2514 27.1453 24.0803 28.1399 23.9404L28.0007 22.9502ZM24.6872 23.4671C23.7003 23.6238 22.814 23.7728 22.0286 23.9142L22.2058 24.8983C22.9829 24.7585 23.8622 24.6106 24.844 24.4548L24.6872 23.4671ZM21.6174 24.4209L21.6408 25.2178L22.6404 25.1884L22.617 24.3916L21.6174 24.4209ZM21.6407 25.2135C21.68 27.1117 21.7801 28.6023 21.9453 29.6738C22.0277 30.2083 22.1289 30.6568 22.2546 31.0062C22.3726 31.3341 22.5433 31.6662 22.8242 31.8535L23.3789 31.0215C23.386 31.0262 23.3648 31.0139 23.3256 30.9515C23.2875 30.8907 23.2428 30.799 23.1956 30.6676C23.1006 30.4038 23.0114 30.026 22.9336 29.5215C22.7785 28.5149 22.6794 27.0758 22.6405 25.1928L21.6407 25.2135ZM22.7795 31.82C23.5179 32.4417 24.7472 32.6875 26.3125 32.6875V31.6875C24.7841 31.6875 23.8728 31.4333 23.4236 31.055L22.7795 31.82ZM26.3125 32.6875C27.2328 32.6875 28.4045 32.4964 29.8126 32.1325L29.5624 31.1643C28.1892 31.5192 27.1109 31.6875 26.3125 31.6875V32.6875ZM29.8249 32.1292C30.4623 31.9471 30.9423 31.8672 31.2812 31.8672V30.8672C30.8077 30.8672 30.2252 30.9748 29.5501 31.1677L29.8249 32.1292ZM31.2812 31.8672C31.4224 31.8672 31.5019 31.9028 31.5548 31.9451L32.1795 31.1643C31.92 30.9566 31.6088 30.8672 31.2812 30.8672V31.8672ZM31.5506 31.9417C31.6084 31.989 31.625 32.0276 31.625 32.0938H32.625C32.625 31.7224 32.4697 31.4016 32.1838 31.1677L31.5506 31.9417ZM31.625 32.0938C31.625 32.2299 31.5859 32.3346 31.5065 32.4299C31.4197 32.5341 31.265 32.6492 31.0018 32.7545L31.3732 33.683C31.735 33.5383 32.049 33.3409 32.2747 33.0701C32.5078 32.7904 32.625 32.4576 32.625 32.0938H31.625ZM31.0119 32.7506C30.0996 33.0927 28.6196 33.2812 26.5234 33.2812V34.2812C28.646 34.2812 30.2754 34.0948 31.3631 33.6869L31.0119 32.7506ZM26.5234 33.2812C24.6809 33.2812 23.4424 32.9126 22.7004 32.2766L22.0496 33.0359C23.0576 33.8999 24.5847 34.2812 26.5234 34.2812V33.2812ZM22.6951 32.2721C22.1015 31.7775 21.6186 30.6684 21.3709 28.7485L20.3791 28.8765C20.6314 30.8316 21.1485 32.285 22.0549 33.0404L22.6951 32.2721ZM21.3719 28.7573C21.2327 27.5045 21.1319 26.1488 21.0699 24.6897L20.0708 24.7322C20.1337 26.2106 20.236 27.5892 20.3781 28.8677L21.3719 28.7573ZM20.4723 24.2206C19.295 24.4561 18.4036 24.6901 17.8253 24.9283L18.206 25.853C18.6901 25.6536 19.5019 25.4345 20.6684 25.2012L20.4723 24.2206ZM17.8299 24.9264C17.6294 25.0066 17.4921 25.0312 17.4062 25.0312V26.0312C17.6642 26.0312 17.9331 25.9622 18.2013 25.8549L17.8299 24.9264ZM17.4062 25.0312C17.2038 25.0312 16.8407 24.9099 16.2799 24.531L15.7201 25.3596C16.3155 25.7619 16.89 26.0312 17.4062 26.0312V25.0312ZM16.2918 24.5393C16.0541 24.3684 15.898 24.2334 15.8065 24.1333C15.7611 24.0837 15.7421 24.0539 15.7364 24.0434C15.7299 24.0314 15.75 24.0621 15.75 24.125H14.75C14.75 24.4192 14.9301 24.6568 15.0685 24.8081C15.227 24.9815 15.4459 25.1628 15.7082 25.3513L16.2918 24.5393ZM15.75 24.125C15.75 24.071 15.7619 24.118 15.7129 24.1914C15.684 24.2348 15.6393 24.2784 15.5791 24.3085C15.5209 24.3376 15.469 24.3438 15.4375 24.3438V23.3438C15.2293 23.3438 15.0162 23.4337 14.8808 23.6367C14.7694 23.8039 14.75 23.9915 14.75 24.125H15.75Z" fill="#333333"/>
</svg>

<svg xmlns="http://www.w3.org/2000/svg" width="50" height="50" fill="none"><path fill="#333" d="M15.438 23.844h3l2.085-.328V21.78c0-2-.226-3.375-.68-4.125-.187-.11-.28-.226-.28-.351 0-.266.218-.399.656-.399.406 0 .906.172 1.5.516.437.25.656.515.656.797l-.07.703c-.172.984-.242 2.422-.211 4.312l5.953-.984a57.27 57.27 0 0 0-.14-2.156c-.063-1.938-.227-3.133-.493-3.586-.172-.235-.258-.414-.258-.54 0-.124.219-.187.657-.187.312 0 .726.188 1.242.563.672.5 1.008.883 1.008 1.148 0 .11-.063.29-.188.54-.125.437-.242 1.624-.352 3.562v.398l.165-.023c.875-.125 1.593-.274 2.156-.446.375-.125.656-.187.843-.187.25 0 .555.156.915.469.39.422.586.726.586.914 0 .25-.157.375-.47.375l-.327-.024a1.08 1.08 0 0 0-.422-.07c-.969 0-2.14.078-3.516.234a25.233 25.233 0 0 1-.328 3.258c-.219 1.313-.5 2.25-.844 2.813-.218.36-.375.539-.468.539-.188 0-.282-.149-.282-.446 0-.296.063-.695.188-1.195.265-1.265.383-2.851.351-4.758-1 .14-2.101.313-3.304.516-.985.156-1.868.305-2.649.445l.024.797c.078 3.781.398 5.86.96 6.235.594.5 1.665.75 3.212.75.859 0 1.984-.18 3.375-.54.656-.187 1.187-.28 1.593-.28.235 0 .43.062.586.187.172.14.258.32.258.539 0 .5-.313.875-.938 1.125-1 .375-2.554.562-4.664.562-1.89 0-3.273-.375-4.148-1.125-.75-.625-1.25-1.906-1.5-3.843a60.61 60.61 0 0 1-.305-4.102c-1.172.234-2.023.46-2.554.68-.235.093-.438.14-.61.14-.36 0-.828-.195-1.406-.586-.5-.36-.75-.633-.75-.82 0-.188.063-.281.188-.281Z"/><path fill="#333" d="M18.438 23.844v.5h.039l.038-.006-.078-.494Zm2.085-.328.078.494.422-.067v-.427h-.5Zm-.68-5.86.429-.258-.066-.11-.11-.064-.252.432Zm1.876-.234-.25.433.002.001.248-.434Zm.656.797.497.05.003-.025v-.025h-.5Zm-.07.703.492.086.003-.018.002-.018-.497-.05Zm-.211 4.312-.5.009.01.58.571-.095-.081-.494Zm5.953-.984.081.493.439-.072-.02-.444-.5.023Zm-.14-2.156-.5.016v.013l.001.012.498-.041Zm-.493-3.586.431-.253-.013-.022-.015-.02-.403.295Zm1.64-.164.3-.401-.005-.004-.294.405Zm.821 1.687-.447-.223-.021.041-.013.045.481.137Zm-.352 3.563-.499-.028v.028h.5Zm0 .398h-.5v.577l.571-.082-.07-.495Zm2.32-.469.147.479.012-.004-.158-.475Zm1.759.282.366-.34-.018-.02-.02-.018-.328.378Zm.117 1.289-.036.498.018.002h.018v-.5Zm-.328-.024-.197.46.077.033.084.006.036-.499Zm-3.938.164-.056-.496-.426.048-.018.428.5.02Zm-.328 3.258-.493-.085v.003l.493.082Zm-.844 2.813-.426-.261.426.26Zm-.562-1.102.485.121.002-.009.002-.01-.49-.102Zm.351-4.758.5-.008-.009-.566-.56.08.07.494Zm-3.304.516.078.494.005-.001-.083-.493Zm-2.649.445-.088-.492-.424.076.012.43.5-.014Zm.024.797.5-.01v-.005l-.5.015Zm.96 6.235.323-.383-.022-.018-.023-.015-.277.416Zm6.587.21.125.485.012-.004-.137-.48Zm2.18-.093.316-.387-.005-.004-.312.39Zm-.68 1.664.175.468.01-.004-.186-.464Zm-8.813-.563.325-.38-.005-.004-.32.384Zm-1.5-3.843-.497.055.001.009.496-.064Zm-.305-4.102.5-.021-.025-.584-.573.115.098.49Zm-2.554.68.185.464.005-.002-.19-.462ZM16 24.945l-.292.406.006.005.006.004.28-.415Zm-.563-.601h3v-1h-3v1Zm3.078-.006 2.086-.328-.155-.988-2.086.328.155.988Zm2.508-.822V21.78h-1v1.735h1Zm0-1.735c0-1.016-.057-1.89-.176-2.612-.118-.718-.302-1.32-.575-1.771l-.856.517c.18.298.336.759.444 1.416.108.652.163 1.467.163 2.45h1Zm-.927-4.557a.513.513 0 0 1-.062-.04c-.012-.01-.014-.014-.01-.01a.16.16 0 0 1 .022.043c.01.024.017.055.017.088h-1c0 .404.303.651.529.783l.504-.864Zm-.034.08c0 .004 0 .032-.02.067a.171.171 0 0 1-.056.062c-.007.005.003-.003.045-.012a.977.977 0 0 1 .188-.015v-1c-.253 0-.527.036-.752.172a.826.826 0 0 0-.404.727h1Zm.157.102c.277 0 .685.122 1.25.449l.5-.866c-.623-.36-1.215-.583-1.75-.583v1Zm1.252.45c.188.108.297.2.354.27.053.064.05.092.05.093h1c0-.569-.439-.963-.908-1.231l-.496.868Zm.407.313-.07.703.994.1.07-.704-.994-.099Zm-.066.667c-.18 1.032-.25 2.507-.218 4.407l1-.017c-.031-1.882.04-3.281.203-4.218l-.985-.172Zm.363 4.892 5.953-.985-.163-.986-5.953.984.163.987Zm6.371-1.5a57.913 57.913 0 0 0-.142-2.176l-.996.083c.062.745.108 1.457.14 2.138l.998-.046Zm-.14-2.15c-.031-.977-.089-1.78-.174-2.402-.083-.6-.199-1.1-.387-1.421l-.862.506c.078.133.176.456.258 1.051.079.573.134 1.337.166 2.298l.999-.032Zm-.589-3.866a1.528 1.528 0 0 1-.145-.23c-.028-.059-.016-.057-.016-.013h-1c0 .168.056.322.114.444.06.128.144.259.24.39l.807-.59Zm-.16-.243a.402.402 0 0 1-.134.297c-.05.043-.087.049-.065.043a.695.695 0 0 1 .115-.018c.062-.006.141-.01.24-.01v-1c-.231 0-.452.015-.63.066a.819.819 0 0 0-.311.16.605.605 0 0 0-.216.462h1Zm.155.312c.143 0 .445.1.949.467l.588-.809c-.528-.383-1.054-.658-1.537-.658v1Zm.944.464c.323.24.544.437.679.59.152.174.128.216.128.157h1c0-.325-.192-.606-.377-.816a5.468 5.468 0 0 0-.833-.733l-.597.802Zm.806.747c0-.028.006-.017-.019.053-.021.062-.058.149-.115.263l.894.447c.068-.136.125-.265.166-.382.038-.11.075-.244.075-.38h-1Zm-.168.402c-.076.268-.14.716-.198 1.307-.06.604-.117 1.393-.172 2.365l.999.056c.054-.966.11-1.739.168-2.323.059-.597.116-.96.165-1.13l-.962-.275Zm-.37 3.7v.398h1v-.398h-1Zm.57.893.164-.023-.141-.99-.164.023.141.99Zm.164-.023c.89-.127 1.636-.28 2.232-.462l-.292-.957c-.53.162-1.22.306-2.081.429l.141.99Zm2.244-.466c.367-.123.584-.162.685-.162v-1c-.273 0-.619.086-1.001.213l.316.949Zm.685-.162c.06 0 .246.05.587.346l.656-.755c-.379-.329-.802-.591-1.242-.591v1Zm.548.308c.185.2.31.358.385.475.086.135.068.156.068.1h1c0-.244-.117-.47-.226-.64a4.592 4.592 0 0 0-.494-.614l-.733.68Zm.453.575c0 .011-.002-.002.009-.029a.208.208 0 0 1 .061-.08c.025-.02.043-.024.037-.023a.324.324 0 0 1-.076.007v1c.21 0 .46-.04.664-.204a.836.836 0 0 0 .304-.671h-1Zm.066-.124-.328-.023-.071.997.328.024.071-.998Zm-.166.016a1.572 1.572 0 0 0-.62-.111v1c.133 0 .2.019.226.03l.394-.92Zm-.62-.111c-.993 0-2.185.08-3.571.238l.113.993c1.363-.155 2.515-.231 3.459-.231v-1Zm-4.015.714a24.725 24.725 0 0 1-.32 3.194l.985.169a25.74 25.74 0 0 0 .335-3.323l-1-.04Zm-.321 3.196c-.217 1.3-.486 2.158-.777 2.634l.853.521c.396-.648.69-1.666.91-2.99l-.986-.165Zm-.778 2.635c-.104.17-.18.277-.231.336-.026.03-.033.032-.02.023a.287.287 0 0 1 .058-.031.402.402 0 0 1 .151-.03v1c.177 0 .308-.08.374-.127.075-.054.139-.119.191-.179.106-.121.217-.284.331-.472l-.854-.52Zm-.041.299a.27.27 0 0 1 .212.122c.016.025.016.038.013.024a.473.473 0 0 1-.007-.092h-1c0 .185.027.41.148.601.146.231.382.345.634.345v-1Zm.218.054c0-.236.052-.589.173-1.074l-.97-.242c-.13.515-.203.96-.203 1.316h1Zm.177-1.092c.276-1.315.394-2.941.362-4.869l-1 .016c.031 1.885-.085 3.431-.34 4.647l.978.206Zm-.207-5.356c-1.006.142-2.112.314-3.319.518l.167.986c1.2-.203 2.296-.374 3.29-.514l-.138-.99Zm-3.314.517c-.987.157-1.873.306-2.658.447l.177.984c.777-.14 1.656-.287 2.638-.443l-.157-.988Zm-3.07.954.024.797 1-.03-.024-.796-1 .029Zm.024.793c.039 1.898.14 3.388.304 4.46.083.534.184.983.31 1.332.118.328.288.66.57.848l.554-.832c.007.004-.014-.008-.053-.07a1.502 1.502 0 0 1-.13-.284c-.095-.264-.185-.642-.262-1.146-.155-1.007-.255-2.446-.294-4.33l-1 .021Zm1.139 6.606c.738.622 1.967.867 3.532.867v-1c-1.528 0-2.44-.254-2.888-.632l-.645.765Zm3.532.867c.92 0 2.092-.19 3.5-.554l-.25-.969c-1.373.355-2.451.523-3.25.523v1Zm3.513-.558c.637-.182 1.117-.262 1.456-.262v-1c-.473 0-1.056.108-1.73.3l.274.962Zm1.456-.262c.141 0 .22.036.274.078l.624-.78a1.406 1.406 0 0 0-.898-.298v1Zm.27.075c.057.047.074.086.074.152h1c0-.372-.155-.692-.441-.926l-.633.774Zm.074.152c0 .136-.04.24-.119.336-.086.104-.241.22-.504.325l.371.928c.362-.145.676-.342.902-.613.233-.28.35-.612.35-.976h-1Zm-.613.657c-.912.342-2.392.53-4.489.53v1c2.123 0 3.752-.186 4.84-.594l-.351-.936Zm-4.489.53c-1.842 0-3.08-.368-3.823-1.004l-.65.759c1.008.864 2.535 1.245 4.473 1.245v-1Zm-3.828-1.009c-.593-.494-1.076-1.604-1.324-3.523l-.992.128c.252 1.955.77 3.408 1.676 4.163l.64-.768Zm-1.323-3.515a60.042 60.042 0 0 1-.302-4.067l-1 .042c.064 1.479.166 2.857.308 4.136l.994-.11Zm-.9-4.536c-1.177.235-2.068.47-2.647.707l.381.925c.484-.2 1.296-.419 2.462-.652l-.196-.98Zm-2.642.705c-.2.08-.338.105-.424.105v1c.258 0 .527-.069.795-.176l-.371-.929Zm-.424.105c-.202 0-.565-.121-1.126-.5l-.56.829c.595.402 1.17.671 1.686.671v-1Zm-1.114-.492a3.268 3.268 0 0 1-.486-.406.52.52 0 0 1-.07-.09c-.006-.012.014.02.014.082h-1c0 .294.18.532.319.683a4.2 4.2 0 0 0 .64.543l.583-.812Zm-.542-.414c0-.054.012-.007-.037.066a.349.349 0 0 1-.275.153v-1a.657.657 0 0 0-.557.293.873.873 0 0 0-.131.488h1Z"/></svg>
